X: 1
T: Trekant nr. 6
T: Julia, Julia
F: http://www.folketshus.dk/cgi-bin/visnode.cgi?tr-nr06
N: The Folkets Hus Spillefolk (www.folketshus.dk) has this in M:2/4
N: I learned it as a jig, which is what "trekant" usually means.
R: jig
Z: 2006 John Chambers <jc:trillian.mit.edu>
M: 6/8
L: 1/8
K: D
|: "D"A2A B2B | A2A F3 | "A7"EFG EFG | "D"B2A A2F \
|  "D"A2A B2B | A2A F3 | "A7"EFG ABc | "D"d2d d2z :|
K: G
|: "G"G2B B3 | B3d d3 | "D7"d2c cBc | "G"e2d d3 \
|  "G"G2B B3 | B3d d3 | "D7"e2d c2A | "G"G3 [g2B2]z :|
w:	Ju-li-a, Ju-li-a, Jul-ia, Ju-li-a hop-sa-sa. \
	Ju-li-a, Ju-li-a, k\ae-re Ju-li-a.
